X:190
T:Miss Galvin
R:Reel
S:Richard Darsie's web page
Z:Transcription, chords:Mike Long
M:C|
L:1/8
K:D
fe|\
"D"d2cA "A"GEFE|"D"D2FA DAFA|"D"d2cA "Em"GEE2|\
"G"(3(Bcd) eg "A"fdec|"D"d2cA "A"GEFE|"D"D2FA DAFA|
"D"d2cA "Em"GEE2|"G"(3(Bcd) "A"ec "D"d2|]\
de|\
"D"fgaf d2de|"D"fgaf "G"gbag|"D"fgaf "A"dcA2|
"G"(3(Bcd) ef g2fe|"D"fgaf d2de|"D"fgaf "G"gbag|\
"D"fAeA "A"dcA2|"G"(3(Bcd) ef g2|]"(fin) G"(3(Bcd) "A"ec "D"d4|]
